src/lib/packages/icons/src/assets/filled/mosque.svg

<svg width="24" height="24" viewBox="0 0 24 24" fill="none" xmlns="http://www.w3.org/2000/svg">
<path d="M5.797 16.385C5.342 15.797 5 15.012 5 14C5 10 11 10.5 12 7.5C13 10.5 19 10 19 14C19 15.012 18.657 15.796 18.203 16.385C18.145 16.459 18.0551 16.5 17.9611 16.5H6.04102C5.94602 16.5 5.855 16.459 5.797 16.385ZM17.5 18H6.5C5.5 18 5 18.5 5 19.5V20.5C5 20.776 5.224 21 5.5 21H18.5C18.776 21 19 20.776 19 20.5V19.5C19 18.5 18.5 18 17.5 18ZM11.726 6.97803C12.806 7.13203 13.7519 6.44801 13.9969 5.48901C14.0139 5.42101 13.9371 5.36796 13.8781 5.40796C13.5901 5.60496 13.228 5.7041 12.837 5.6521C12.218 5.5691 11.721 5.10888 11.604 4.50488C11.5 3.95988 11.705 3.45406 12.078 3.13306C12.131 3.08706 12.101 3 12.03 3C12.029 3 12.029 3 12.028 3C11.284 3 10.634 3.39393 10.281 3.98193C10.063 4.34393 9.95804 4.77992 10.014 5.24292C10.121 6.12992 10.829 6.85003 11.726 6.97803Z" fill="currentColor"/>
</svg>

<svg xmlns="http://www.w3.org/2000/svg" width="24" height="24" fill="none"><path fill="currentColor" d="M5.797 16.385C5.342 15.797 5 15.012 5 14c0-4 6-3.5 7-6.5 1 3 7 2.5 7 6.5a3.818 3.818 0 0 1-.797 2.385.306.306 0 0 1-.242.115H6.041a.309.309 0 0 1-.244-.115ZM17.5 18h-11c-1 0-1.5.5-1.5 1.5v1a.5.5 0 0 0 .5.5h13a.5.5 0 0 0 .5-.5v-1c0-1-.5-1.5-1.5-1.5ZM11.726 6.978a2.03 2.03 0 0 0 2.27-1.489c.018-.068-.059-.121-.118-.081-.288.197-.65.296-1.041.244a1.437 1.437 0 0 1-.759-2.519c.053-.046.023-.133-.048-.133h-.002c-.744 0-1.394.394-1.747.982a1.97 1.97 0 0 0-.267 1.26 2.013 2.013 0 0 0 1.712 1.736Z"/></svg>
